X:92
T:Love will find out the way
Z:Jack Campin - http://www.campin.me.uk
S:Blaikie MS (NLS MS.1578) p27, Blaikie #86
M:C
L:1/8
V:1 midi program 1 74
V:2 midi program 1 46 bass middle = d transpose -24
Q:1/4=90
K:D Minor
[V:1] c2|A2FG {B}A2GA|{G}F2EF D2c2|A2FG {B}A2 GA |{G}F2EF  D2||
[V:2] z2|f2f2    f2f2|   a2A2 d2z2|f2f2    f2 f2 |   a2A2  d2||
%
[V:1] c2|dAde    f2ed|   c2AF G2FG|A2d>c   c<dG>A|{G}F2E>F D2|]
[V:2] z2|d2d2    d2d2|   e2f2 c2z2|f2f2    f2 g2 |   a2A2  d2|]
W:Transcription (c) Jack Campin 2009, no mirroring or republication without permission

